assets/svg/phone-circle-o.svg

<?xml version="1.0" encoding="UTF-8"?>
<svg width="1000px" height="1000px" viewBox="0 0 1000 1000" version="1.1" xmlns="http://www.w3.org/2000/svg" xmlns:xlink="http://www.w3.org/1999/xlink">
    <!-- Generator: sketchtool 52.4 (67378) - http://www.bohemiancoding.com/sketch -->
    <title>phone-circle-o</title>
    <desc>Created with sketchtool.</desc>
    <g id="新版图标" stroke="none" stroke-width="1" fill="none" fill-rule="evenodd">
        <g id="phone-circle-o" fill="#323233" fill-rule="nonzero">
            <g id="直角-服务热线">
                <path d="M500,888.888889 C714.777403,888.888889 888.888889,714.777403 888.888889,500 C888.888889,285.222597 714.777403,111.111111 500,111.111111 C285.222597,111.111111 111.111111,285.222597 111.111111,500 C111.111111,714.777403 285.222597,888.888889 500,888.888889 Z M500,944.444444 C254.540111,944.444444 55.5555556,745.459889 55.5555556,500 C55.5555556,254.540111 254.540111,55.5555556 500,55.5555556 C745.459889,55.5555556 944.444444,254.540111 944.444444,500 C944.444444,745.459889 745.459889,944.444444 500,944.444444 Z" id="Oval"></path>
                <path d="M424.637396,385.957142 C418.756764,374.816278 410.587477,361.605346 401.739721,348.965694 C392.997688,336.47661 383.842601,324.832469 375.427212,316.104161 C367.473601,307.856154 363.688246,305.555556 364.085191,305.555556 C359.574496,305.555556 343.127562,320.620219 331.377988,336.28492 C316.692927,355.867726 305.555556,378.509437 305.555556,395.448935 C305.555556,413.272429 317.538522,441.711956 336.555671,472.575088 C356.912784,505.61025 385.336497,541.530777 416.149116,573.154699 L426.589485,583.598357 C458.469223,614.663503 494.38975,643.087216 527.424912,663.444329 C558.272471,682.456918 586.7242,694.444444 604.548439,694.444444 C621.493476,694.444444 644.140433,683.30504 663.712644,668.623839 C679.379781,656.872438 694.444444,640.425504 694.444444,635.914809 C694.444444,636.311692 692.144218,632.526793 683.900022,624.576914 C675.167904,616.157783 663.523842,607.002629 651.03598,598.261451 C638.384544,589.407161 625.176773,581.239678 614.047314,575.366196 C601.338066,568.658912 595.978828,566.965808 594.15317,566.931139 C594.493725,566.936361 594.426198,567.053958 592.717331,569.530601 C590.454625,572.807206 588.546538,576.709343 584.439907,586.213915 C583.086922,589.340959 583.086922,589.340959 581.335982,593.234186 C580.442352,595.16723 580.442352,595.16723 579.472411,597.170785 C577.218213,601.759411 575.222087,605.25272 572.639705,608.492589 L561.668874,622.256644 L544.538023,618.214083 C534.389959,615.81933 519.753444,608.313999 501.54198,595.911274 C483.08624,583.339769 463.257882,567.223033 447.560281,551.921057 C432.774867,536.739961 416.657977,516.910651 404.08885,498.455577 C391.688843,480.251919 384.183222,465.612294 381.786751,455.462883 L377.740888,438.328053 L391.509742,427.355812 C394.750347,424.77341 398.244815,422.777492 402.837014,420.522335 C404.83507,419.555341 404.83507,419.555341 406.763291,418.66409 C410.660799,416.911584 410.660799,416.911584 413.796977,415.55538 C423.302664,411.444904 427.199169,409.539571 430.482193,407.27565 C432.939756,405.580159 433.060624,405.510347 433.066489,405.844162 C433.031702,404.016125 431.340854,398.660651 424.637396,385.957142 Z M387.56159,623.134594 L376.61288,612.182594 C342.784492,577.467155 311.830587,538.349095 289.258568,501.719621 C265.133635,462.567013 250,426.649911 250,395.448935 C250,363.068134 265.534027,331.488246 286.933144,302.95212 C310.207673,271.922182 334.141343,250 364.085191,250 C382.427166,250 397.969271,259.445913 415.419717,277.542271 C426.20574,288.729364 436.992222,302.44844 447.252884,317.107072 C457.374908,331.567107 466.753859,346.734243 473.770151,360.026617 C484.403936,380.178362 488.622338,393.770894 488.622338,405.906142 C488.622338,425.107984 478.789841,441.442061 462.025727,453.007753 C457.062989,456.429978 452.73365,458.867911 446.442712,461.820447 C447.544737,463.522246 448.732255,465.312121 450.005196,467.180844 C460.783585,483.006603 474.86136,500.327101 486.840566,512.640771 C499.671453,525.137232 516.992099,539.215668 532.81611,549.994518 C534.685142,551.267403 536.475302,552.454902 538.177344,553.55693 C541.129921,547.26484 543.572796,542.928566 546.996604,537.970583 C558.561975,521.208979 574.891854,511.375036 594.096484,511.375036 C606.22844,511.375036 619.822517,515.596505 639.977092,526.233047 C653.256585,533.241192 668.419824,542.617906 682.89253,552.746838 C697.552073,563.008136 711.271221,573.794828 722.461922,584.58442 C740.554302,602.030901 750,617.573296 750,635.914809 C750,665.858657 728.077818,689.792327 697.048413,713.066457 C668.526421,734.460928 636.934721,750 604.548439,750 C573.347057,750 537.411689,734.859512 498.278563,710.740313 C461.650206,688.16886 422.532532,657.215204 387.56159,623.134594 Z" id="Fill-1"></path>
            </g>
        </g>
    </g>
</svg>

<svg width="1000" height="1000" xmlns="http://www.w3.org/2000/svg"><g fill="#323233" fill-rule="nonzero"><path d="M500 888.889c214.777 0 388.889-174.112 388.889-388.889 0-214.777-174.112-388.889-388.889-388.889-214.777 0-388.889 174.112-388.889 388.889 0 214.777 174.112 388.889 388.889 388.889zm0 55.555C254.54 944.444 55.556 745.46 55.556 500S254.54 55.556 500 55.556 944.444 254.54 944.444 500 745.46 944.444 500 944.444z"/><path d="M424.637 385.957c-5.88-11.14-14.05-24.352-22.897-36.991-8.742-12.49-17.897-24.134-26.313-32.862-7.953-8.248-11.739-10.548-11.342-10.548-4.51 0-20.957 15.064-32.707 30.729-14.685 19.583-25.822 42.224-25.822 59.164 0 17.823 11.983 46.263 31 77.126 20.357 33.035 48.78 68.956 79.593 100.58l10.44 10.443c31.88 31.066 67.8 59.49 100.836 79.846 30.847 19.013 59.3 31 77.123 31 16.945 0 39.592-11.139 59.165-25.82 15.667-11.752 30.731-28.198 30.731-32.71 0 .398-2.3-3.387-10.544-11.337-8.732-8.42-20.376-17.574-32.864-26.316-12.651-8.854-25.86-17.021-36.989-22.895-12.709-6.707-18.068-8.4-19.894-8.435.34.005.273.123-1.436 2.6-2.262 3.276-4.17 7.178-8.277 16.683-1.353 3.127-1.353 3.127-3.104 7.02-.894 1.933-.894 1.933-1.864 3.937-2.254 4.588-4.25 8.082-6.832 11.322l-10.971 13.764-17.131-4.043c-10.148-2.395-24.785-9.9-42.996-22.303-18.456-12.571-38.284-28.688-53.982-43.99-14.785-15.181-30.902-35.01-43.471-53.465-12.4-18.204-19.906-32.844-22.302-42.993l-4.046-17.135 13.769-10.972c3.24-2.583 6.735-4.579 11.327-6.834 1.998-.967 1.998-.967 3.926-1.858 3.898-1.752 3.898-1.752 7.034-3.109 9.506-4.11 13.402-6.015 16.685-8.28 2.458-1.695 2.579-1.765 2.584-1.43-.034-1.829-1.725-7.184-8.429-19.888zm-37.075 237.178l-10.95-10.952c-33.828-34.716-64.781-73.834-87.353-110.463C265.134 462.567 250 426.65 250 395.449c0-32.38 15.534-63.96 36.933-92.497C310.208 271.922 334.141 250 364.085 250c18.342 0 33.884 9.446 51.335 27.542 10.786 11.187 21.572 24.906 31.833 39.565 10.122 14.46 19.5 29.627 26.517 42.92 10.634 20.151 14.852 33.744 14.852 45.88 0 19.201-9.832 35.535-26.596 47.1-4.963 3.423-9.292 5.86-15.583 8.813a276.228 276.228 0 0 0 3.562 5.36c10.779 15.827 24.856 33.147 36.836 45.46 12.83 12.497 30.151 26.576 45.975 37.355 1.87 1.272 3.66 2.46 5.361 3.562 2.953-6.292 5.396-10.628 8.82-15.586 11.565-16.762 27.895-26.596 47.1-26.596 12.131 0 25.726 4.222 45.88 14.858 13.28 7.008 28.443 16.385 42.916 26.514 14.66 10.261 28.378 21.048 39.569 31.837 18.092 17.447 27.538 32.99 27.538 51.33 0 29.945-21.922 53.878-52.952 77.152-28.522 21.395-60.113 36.934-92.5 36.934-31.2 0-67.136-15.14-106.27-39.26-36.628-22.571-75.745-53.525-110.716-87.605z"/></g></svg>
